X:2047
T:My chaarjyn, gow jee tastey cair 
C:Mrs Henry Clague, Ballanorris
O:Isle of Man
S:Traditional
B:Kiaull Vannin #47
N:See also KV413. See Carvalyn Gailckagh, Moore et al., p.81.
Z:Clague collection 
M:2/4 
Q:80 
L:1/8
K:G 
E2|BF (GF)|E2 FE/D/|E2 F2|GF E2|F2 GA|!fermata!B2 B2|EF (GA)|B2 AG|F2 (GA)|BF GF|E2 FE/D/|E2||
